X: 391
T:Banshee's Wail over the Mangle Pit, The (in F)
L:1/8
M:6/8
Z:Peter Crummy
K:F
A|B3 ABA|GFD FGA|B3 Adc|AGG G2A|!
B3 ABA|GFD FGA|Bcd cdc|1 AGG G2:|2 AGG G3||!
fed gfd|cAF FAc|fed gfe|def g3|!
fed gfd|cAF FGA|1 B3 Adc|AGG G3:|2 Bcd cdc|AGG G3||!
afe|dBAF BFAF||E8
<end>
<start>
